X: 50
M:C|
L:1/8
K:Bb
uF2|\
vBzvB2- (B>.A)(c>.B) | "^SEGUE"dzB2- B>Ac>B | A>Bc>d e>dc>B |\
 c>BA>G F>ED>E |
|:uF2|\
v((3BcB) (F>.B) (d>.F)"_SEGUE"B>d | ((3cdc) G>c e>dc>B |\
 ((3ABA) E>B ((3ABA) E>A | G>F=E>F D>FG>A |
((3BcB) F>B d>FB>d | ((3cdc) G>c e>dc>B |\
 A>gf2 F>ed>c | B2 [F2d2] [D2B2]:|


